!!!!SEGMENT: pl-sa--370-a-viii-10--002_anonim--concert-na-bolze-narodzenie-puer-natus-in-betleem.krn
!!!cenid: 17xx:1351
!!!COM: Anonim
!!!COM-rismID: pe30004985
!!!CDT:
!!!CNT:
!!!OPR: Concert na Boże Narodzenie
!!!OTL: Puer natus in Betleem
!!!OMV: 002
!!!PDT:
!!!AGN: Sacred; Motet; Christmas
!!!SMS-siglum: PL-SA
!!!SMS-shelfmark: 370/A VIII 10
!!!SMS-shelfwork: 001-002 M
!!!SMS-variant:
!!!SMS-altvar:
!!!NIFC-rismSourceID: 1001069976
!!!NIFC-islandoraID:
!!!URL-pdf-islandora:
!!!URL-scan: https://bc.bdsandomierz.pl/dlibra/publication/1674/edition/1642/content @EN{Scan in the Sandomierz Diocese Digital Library} @PL{Skany w portalu Cyfrowa Biblioteka Diecezjalna w Sandomierzu}
!!!ONB-nifc: UWAGA: części Concertu: 1. Gloria in excelsis (Et in terra to część Glorii), 2. Puer natus in Betleem, 3. O Józefie czego chcecie. Uwaga: okładka zrobiona z innego utworu
!!!AIN: 1 cbass 2 soprn 2 violn
!!!key: B-
**kern	**kern	**dynam	**kern	**dynam	**kern	**text	**kern	**text
*group2	*group2	*	*group2	*	*group1	*	*group1	*
*part5	*part4	*part4	*part3	*part3	*part2	*part2	*part1	*part1
*staff5	*staff4	*	*staff3	*	*staff2	*staff2	*staff1	*staff1
*I"Baſso.	*I"Violino 2do.	*	*I"Violino Primo-	*	*I"Canto 2do	*	*I"Canto=	*
*I'cb	*I'vl 2	*	*I'vl 1	*	*I'S 2	*	*I'S 1	*
*Icbass	*Ivioln	*	*Ivioln	*	*Isoprn	*	*Isoprn	*
*ICstr	*ICstr	*	*ICstr	*	*ICvox	*	*ICvox	*
*clefF4	*clefG2	*	*clefG2	*	*clefC1	*	*clefC1	*
*k[b-e-]	*k[b-e-]	*	*k[b-e-]	*	*k[b-e-]	*	*k[b-e-]	*
*B-:	*B-:	*	*B-:	*	*B-:	*	*B-:	*
*M6/8	*M6/8	*	*M6/8	*	*M6/8	*	*M6/8	*
=1	=1	=1	=1	=1	=1	=1	=1	=1
!	!	!	!	!	!LO:TX:a:t=16.	!	!LO:TX:a:t=12.	!
!LO:TX:a:i:t=andante	!LO:TX:a:i:t=andan	!	!LO:TX:a:i:t=andantino	!	!LO:TX:a:i:t=andan	!	!	!
4BB-/	4dd\	.	4ff\	.	0.r	.	0.r	.
8BB-/	8dd\	.	8ff\	.	.	.	.	.
4BB-/	8dd\L	.	8ff\L	.	.	.	.	.
.	8b-\	.	8dd\	.	.	.	.	.
8BB-/	8f\J	.	8b-\J	.	.	.	.	.
=2	=2	=2	=2	=2	=2	=2	=2	=2
4F\	4a\	.	4cc\	.	.	.	.	.
8F\	8cc\	.	8ee-\	.	.	.	.	.
4F\	4cc\	.	4ee-\	.	.	.	.	.
8F\	8b-\	.	8dd\	.	.	.	.	.
=3	=3	=3	=3	=3	=3	=3	=3	=3
4BB-/	4dd\	.	4ff\	.	.	.	.	.
8BB-/	8dd\	.	8ff\	.	.	.	.	.
4BB-/	8dd\L	.	8ff\L	.	.	.	.	.
.	8b-\	.	8dd\	.	.	.	.	.
8BB-/	8f\J	.	8b-\J	.	.	.	.	.
=4	=4	=4	=4	=4	=4	=4	=4	=4
4F\	4a/	.	4cc\	.	.	.	.	.
8F\	16a/LL	.	16cc\LL	.	.	.	.	.
.	16g/JJ	.	16b-\JJ	.	.	.	.	.
4F\	8.f/L	.	8.a/L	.	.	.	.	.
.	16c/Jk	.	16g/Jk	.	.	.	.	.
8FF/	8A/	.	8f/	.	.	.	.	.
!LO:LB:g=original	!	!	!	!	!	!	!	!
=5	=5	=5	=5	=5	=5	=5	=5	=5
8F\L	4cc\	.	4ee-\	.	0.r	.	0.r	.
8A\	.	.	.	.	.	.	.	.
8c\J	16cc\LL	.	16ee-\LL	.	.	.	.	.
.	16b-\JJ	.	16dd\JJ	.	.	.	.	.
8F\L	4a/	.	4cc\	.	.	.	.	.
8A\	.	.	.	.	.	.	.	.
8c\J	8g/	.	16a/LL	.	.	.	.	.
.	.	.	16f/JJ	.	.	.	.	.
!	!LO:LB:g=original	!	!	!	!	!	!	!
=6	=6	=6	=6	=6	=6	=6	=6	=6
8F\L	4d/	.	4b-\	.	.	.	.	.
8B-\	.	.	.	.	.	.	.	.
8d\J	16f/LL	.	16b-\LL	.	.	.	.	.
.	16b-/JJ	.	16dd\JJ	.	.	.	.	.
8F\L	4dd\	.	4ff\	.	.	.	.	.
8B-\	.	.	.	.	.	.	.	.
8d\J	16cc\LL	.	16ee-\LL	.	.	.	.	.
.	16b-\JJ	.	16dd\JJ	.	.	.	.	.
!	!	!	!LO:LB:g=original	!	!	!	!	!
=7	=7	=7	=7	=7	=7	=7	=7	=7
8F\L	4cc\	.	4ee-\	.	.	.	.	.
8A\	.	.	.	.	.	.	.	.
8c\J	16cc\LL	.	16ee-\LL	.	.	.	.	.
.	16b-\JJ	.	16dd\JJ	.	.	.	.	.
8F\L	4a/	.	4cc\	.	.	.	.	.
8A\	.	.	.	.	.	.	.	.
8c\J	8f/	.	16a/LL	.	.	.	.	.
.	.	.	16f/JJ	.	.	.	.	.
=8	=8	=8	=8	=8	=8	=8	=8	=8
8BB-/L	4d/	.	4b-\	.	.	.	.	.
8D/	.	.	.	.	.	.	.	.
8F/J	16e-/LL	.	16cc\LL	.	.	.	.	.
.	16f/JJ	.	16dd\JJ	.	.	.	.	.
4BB-/	4d/	.	4b-\	.	.	.	.	.
8r	8r	.	8r	.	.	.	.	.
=9	=9	=9	=9	=9	=9	=9	=9	=9
8F\L	4cc\	.	4ee-\	.	0.r	.	0.r	.
8A\	.	.	.	.	.	.	.	.
8c\J	16cc\LL	.	16ee-\LL	.	.	.	.	.
.	16b-\JJ	.	16dd\JJ	.	.	.	.	.
8F\L	4a/	.	4cc\	.	.	.	.	.
8A\	.	.	.	.	.	.	.	.
8c\J	8f/	.	16a/LL	.	.	.	.	.
.	.	.	16f/JJ	.	.	.	.	.
=10	=10	=10	=10	=10	=10	=10	=10	=10
8F\L	4d/	.	4b-\	.	.	.	.	.
8B-\	.	.	.	.	.	.	.	.
8d\J	16f/LL	.	16b-\LL	.	.	.	.	.
.	16b-/JJ	.	16dd\JJ	.	.	.	.	.
8F\L	4dd\	.	4ff\	.	.	.	.	.
8B-\	.	.	.	.	.	.	.	.
8d\J	16cc\LL	.	16ee-\LL	.	.	.	.	.
.	16b-\JJ	.	16dd\JJ	.	.	.	.	.
=11	=11	=11	=11	=11	=11	=11	=11	=11
8F\L	4cc\	.	4ee-\	.	.	.	.	.
8A\	.	.	.	.	.	.	.	.
8c\J	16cc\LL	.	16ee-\LL	.	.	.	.	.
.	16b-\JJ	.	16dd\JJ	.	.	.	.	.
8F\L	4a/	.	4cc\	.	.	.	.	.
8A\	.	.	.	.	.	.	.	.
8c\J	8f/	.	16a/LL	.	.	.	.	.
.	.	.	16f/JJ	.	.	.	.	.
=12	=12	=12	=12	=12	=12	=12	=12	=12
8B-\L	4d/	.	4b-\	.	.	.	.	.
8F\	.	.	.	.	.	.	.	.
8D\J	16e-/LL	.	16cc\LL	.	.	.	.	.
.	16f/JJ	.	16dd\JJ	.	.	.	.	.
4BB-/	4d/	.	4b-\	.	.	.	.	.
8r	8r	.	8r	.	.	.	.	.
!LO:LB:g=original	!	!	!	!	!	!	!	!
=13	=13	=13	=13	=13	=13	=13	=13	=13
!LO:TX:t=P:problem=takty nr 13-24 zapisane repetycją	!	!LO:DY:t=pia	!	!LO:DY:t=pp.	!	!	!	!
4BB-/yy	4B-/	p	4d/	pp	0.r	.	4ff\	pu-
8BB-/yy	8d/	.	8f/	.	.	.	8ff\	-er
!	!	!	!	!	!	!	!LO:S:color=grey	!
4BB-/yy	4B-/	.	4d/	.	.	.	(8ff\	na-
!	!	!	!	!	!	!	!LO:TX:a:t=d	!
.	.	.	.	.	.	.	8dd\)	.
!	!LO:TX:b:i:t=V. Citiſsimo	!	!LO:TX:b:i:t=V. Citiſsimo	!	!	!	!LO:TX:a:t=h	!
8BB-/yy	8d/	.	8f/	.	.	.	8b-\	-tus
!	!LO:PB:g=original	!	!LO:PB:g=original	!	!	!	!LO:LB:g=original	!
=14	=14	=14	=14	=14	=14	=14	=14	=14
4F\yy	4c/	.	4e-/	.	.	.	4cc\	in
8F\yy	8r	.	8r	.	.	.	8ee-\	Be-
4F\yy	4r	.	4r	.	.	.	4ee-\	-tle-
8F\yy	8r	.	8r	.	.	.	8dd\	-iem
=15	=15	=15	=15	=15	=15	=15	=15	=15
4BB-/yy	4B-/	.	4d/	.	.	.	4ff\	un-
8BB-/yy	8d/	.	8f/	.	.	.	8ff\	-de
4BB-/yy	4B-/	.	4d/	.	.	.	8ff\L	gau-
.	.	.	.	.	.	.	8dd\	.
8BB-/yy	8d/	.	8f/	.	.	.	8b-\J	-det
=16	=16	=16	=16	=16	=16	=16	=16	=16
4F\yy	4A/	.	4f/	.	.	.	4cc\	in
8F\yy	8A/	.	8f/	.	.	.	16cc\LL	Je-
.	.	.	.	.	.	.	16b-\JJ	.
4F\yy	4A/	.	4f/	.	.	.	8.a/	-ru-
.	.	.	.	.	.	.	16g/	-sa-
8FF/yy	8A/	.	8f/	.	.	.	8f/	-lem
!LO:LB:g=original	!	!	!	!	!	!	!	!
=17	=17	=17	=17	=17	=17	=17	=17	=17
8F\Lyy	4c/	.	4e-/	.	4cc\	est	4ee-\	est
8A\yy	.	.	.	.	.	.	.	.
8c\Jyy	8c/	.	8e-/	.	16cc\LL	co-	16ee-\LL	co-
.	.	.	.	.	16b-\JJ	.	16dd\JJ	.
8F\Lyy	4c/	.	4e-/	.	4a\	-len-	4cc\	-len-
8A\yy	.	.	.	.	.	.	.	.
!	!	!	!	!	!	!	!LO:TX:a:t=a	!
8c\Jyy	8c/	.	8e-/	.	8f/	-das	8a\	-das
=18	=18	=18	=18	=18	=18	=18	=18	=18
!	!	!	!LO:TX:a:t=d	!	!	!	!	!
8F\Lyy	4B-/	.	4d/	.	4d/	chri-	4b-\	chri-
8B-\yy	.	.	.	.	.	.	.	.
!	!	!	!LO:TX:a:t=d	!	!	!	!	!
8d\Jyy	8B-/	.	8d/	.	16f/LL	-sti	16b-\LL	-sti
.	.	.	.	.	16b-/JJ	.	16dd\JJ	.
!	!	!	!LO:TX:a:t=d	!	!	!	!	!
8F\Lyy	4B-/	.	4d/	.	4dd\	Pa-	4ff\	Pa-
8B-\yy	.	.	.	.	.	.	.	.
!	!	!	!LO:TX:a:t=d	!	!	!	!	!
8d\Jyy	8B-/	.	8d/	.	16cc\LL	-ter	16ee-\LL	-ter
.	.	.	.	.	16b-\JJ	.	16dd\JJ	.
=19	=19	=19	=19	=19	=19	=19	=19	=19
8F\Lyy	4c/	.	4e-/	.	4cc\	est	4ee-\	est
8A\yy	.	.	.	.	.	.	.	.
8c\Jyy	8c/	.	8e-/	.	16cc\LL	co-	16ee-\LL	co-
.	.	.	.	.	16b-\JJ	.	16dd\JJ	.
8F\Lyy	4c/	.	4e-/	.	4a\	-len-	4cc\	-len-
8A\yy	.	.	.	.	.	.	.	.
!	!	!	!	!	!	!	!LO:TX:a:t=a	!
8c\Jyy	8c/	.	8e-/	.	8f/	-da	8a\	-das
=20	=20	=20	=20	=20	=20	=20	=20	=20
8BB-/Lyy	4B-/	.	4d/	.	4d/	chri-	4b-\	chri-
8D/yy	.	.	.	.	.	.	.	.
8F/Jyy	8B-/	.	8d/	.	16e-/LL	-sti	16cc\LL	-sti
.	.	.	.	.	16f/JJ	.	16dd\JJ	.
4BB-/yy	4B-/	.	4d/	.	4d/	Ma-	4b-\	Ma-
8ryy	8B-/	.	8d/	.	8d/	-ter	8b-\	-ter
!	!	!	!	!	!	!	!LO:LB:g=original	!
=21	=21	=21	=21	=21	=21	=21	=21	=21
8F\Lyy	4f/	.	8f/L	.	4cc\	est	4ee-\	est
8A\yy	.	.	8a/	.	.	.	.	.
8c\Jyy	8f/	.	8cc/J	.	16cc\LL	co-	16ee-\LL	co-
.	.	.	.	.	16b-\JJ	.	16dd\JJ	.
8F\Lyy	4f/	.	8f/L	.	4a\	-len-	4cc\	-len-
8A\yy	.	.	8a/	.	.	.	.	.
8c\Jyy	8f/	.	8cc/J	.	8f/	-das	8a\	-das
!	!LO:LB:g=original	!	!	!	!	!	!	!
=22	=22	=22	=22	=22	=22	=22	=22	=22
8F\Lyy	4d/	.	8f/L	.	4d/	chri-	4b-\	Chri-
8B-\yy	.	.	8b-/	.	.	.	.	.
8d\Jyy	8d/	.	8dd/J	.	16f/LL	-sti	16b-\LL	-sti
.	.	.	.	.	16b-/JJ	.	16dd\JJ	.
8F\Lyy	4d/	.	8f/L	.	4dd\	Pa-	4ff\	Pa-
8B-\yy	.	.	8b-/	.	.	.	.	.
8d\Jyy	8d/	.	8dd/J	.	16cc\LL	-ter	16ee-\LL	-ter.
.	.	.	.	.	16b-\JJ	.	16dd\JJ	.
!	!	!	!LO:LB:g=original	!	!LO:LB:g=original	!	!	!
=23	=23	=23	=23	=23	=23	=23	=23	=23
8F\Lyy	4f/	.	8f/L	.	4cc\	est	4ee-\	est
8A\yy	.	.	8a/	.	.	.	.	.
8c\Jyy	8f/	.	8cc/J	.	16cc\LL	co-	16ee-\LL	co-
.	.	.	.	.	16b-\JJ	.	16dd\JJ	.
8F\Lyy	4f/	.	8f/L	.	4a\	-len-	4cc\	-len-
8A\yy	.	.	8a/	.	.	.	.	.
!	!	!	!	!	!	!	!LO:TX:a:t=a	!
8c\Jyy	8f/	.	8cc/J	.	8f/	-da	8a\	-das
=24	=24	=24	=24	=24	=24	=24	=24	=24
8B-\Lyy	4B-/	.	4d/	.	4d/	chri-	4b-\	chri-
8F\yy	.	.	.	.	.	.	.	.
8D\Jyy	8d/	.	8f/	.	16e-/LL	-sti	16cc\LL	-sti
.	.	.	.	.	16f/JJ	.	16dd\JJ	.
4BB-/yy	4B-/	.	4d/	.	4d/	Ma-	4b-\	Ma-
8ryy	8r	.	8r	.	8d/	-ter	8b-\	-ter
!LO:LB:g=original	!	!	!	!	!	!	!	!
=25	=25	=25	=25	=25	=25	=25	=25	=25
!	!	!	!	!LO:DY:t=for.	!LO:TX:a:t=8.	!	!LO:TX:a:t=8.	!
8BB-/L	8dd\L	.	16dd\LL	f	0.r	.	0.r	.
.	.	.	16ee-\	.	.	.	.	.
8BB-/	8dd\	.	16ff\	.	.	.	.	.
.	.	.	16een\	.	.	.	.	.
8BB-/J	8dd\J	.	16gg\	.	.	.	.	.
.	.	.	16ff\JJ	.	.	.	.	.
*tremolo	*	*	*	*	*	*	*	*
8BB-/L	4dd\	.	4ff\	.	.	.	.	.
8BB-/	.	.	.	.	.	.	.	.
8BB-/J	8dd\	.	16dd\LL	.	.	.	.	.
.	.	.	16b-\JJ	.	.	.	.	.
*Xtremolo	*	*	*	*	*	*	*	*
=26	=26	=26	=26	=26	=26	=26	=26	=26
!LO:TX:t=P:problem=mixed beam	!	!	!	!	!	!	!	!
8BB-/L	8ee-\L	.	16gg\LL	.	.	.	.	.
.	.	.	16aa\	.	.	.	.	.
8B-\	8ee-\	.	16bb-\	.	.	.	.	.
.	.	.	16gg\	.	.	.	.	.
8B-\J	8ee-\J	.	16een\	.	.	.	.	.
.	.	.	16gg\JJ	.	.	.	.	.
*tremolo	*	*	*	*	*	*	*	*
8B-\L	4dd\	.	4ff\	.	.	.	.	.
8B-\	.	.	.	.	.	.	.	.
8B-\J	16b-\LL	.	16dd\LL	.	.	.	.	.
!	!	!	!LO:TX:a:t=vi	!	!	!	!	!
.	16f\JJ	.	16b-\JJ	.	.	.	.	.
=27	=27	=27	=27	=27	=27	=27	=27	=27
!	!	!	!LO:TX:a:t=de	!	!	!	!	!
8B-\L	8dd\L	.	16dd\LL	.	.	.	.	.
.	.	.	16ee-\	.	.	.	.	.
8B-\	8dd\	.	16ff\	.	.	.	.	.
.	.	.	16een\	.	.	.	.	.
8B-\J	8dd\J	.	16gg\	.	.	.	.	.
.	.	.	16ff\JJ	.	.	.	.	.
8B-\L	4dd\	.	4ff\	.	.	.	.	.
8B-\	.	.	.	.	.	.	.	.
8B-\J	8dd\	.	16dd\LL	.	.	.	.	.
.	.	.	16b-\JJ	.	.	.	.	.
*Xtremolo	*	*	*	*	*	*	*	*
=28	=28	=28	=28	=28	=28	=28	=28	=28
8F\L	16d/LL	.	16cc\LL	.	.	.	.	.
.	16f/	.	16dd\	.	.	.	.	.
8F\	16b-/	.	16ee-\	.	.	.	.	.
.	16f/	.	16cc\	.	.	.	.	.
8F\J	16c/	.	16a\	.	.	.	.	.
.	16e-/JJ	.	16cc\JJ	.	.	.	.	.
4BB-/	4d'/	.	4b-\	.	.	.	.	.
8r	8r	.	8r	.	.	.	.	.
!	!LO:LB:g=original	!	!	!	!	!	!	!
=29	=29	=29	=29	=29	=29	=29	=29	=29
4BB-/	4d/	.	4b-\	.	0.r	.	0.r	.
8r	8f/	.	16cc\LL	.	.	.	.	.
.	.	.	16dd\JJ	.	.	.	.	.
4BB-/	4d/	.	4b-\	.	.	.	.	.
8r	8f/	.	16cc\LL	.	.	.	.	.
.	.	.	16dd\JJ	.	.	.	.	.
=30	=30	=30	=30	=30	=30	=30	=30	=30
*tremolo	*	*	*	*	*	*	*	*
8BB-/L	8e-/L	.	(16b-/LL	.	.	.	.	.
.	.	.	16a/	.	.	.	.	.
8BB-/	8e-/	.	16g/	.	.	.	.	.
.	.	.	16f/	.	.	.	.	.
8BB-/J	8e-/J	.	16g/	.	.	.	.	.
.	.	.	16a/JJ)	.	.	.	.	.
8BB-/L	8.d/L	.	8.b-\L	.	.	.	.	.
8BB-/	.	.	.	.	.	.	.	.
.	16b-/Jk	.	16dd\Jk	.	.	.	.	.
8BB-/J	8dd\	.	8ff\	.	.	.	.	.
*Xtremolo	*	*	*	*	*	*	*	*
!	!	!	!LO:LB:g=original	!	!	!	!	!
=31	=31	=31	=31	=31	=31	=31	=31	=31
4BB-/	4d/	.	4b-\	.	.	.	.	.
8r	8f/	.	16cc\LL	.	.	.	.	.
.	.	.	16dd\JJ	.	.	.	.	.
4BB-/	4d/	.	4b-\	.	.	.	.	.
8r	8f/	.	16cc\LL	.	.	.	.	.
.	.	.	16dd\JJ	.	.	.	.	.
=32	=32	=32	=32	=32	=32	=32	=32	=32
8E-\L	8e-/L	.	16b-/LL	.	.	.	.	.
.	.	.	16a/	.	.	.	.	.
8C\	8e-/	.	16g/	.	.	.	.	.
.	.	.	16f/	.	.	.	.	.
!LO:TX:a:t=f.	!	!	!	!	!	!	!	!
8F\J	8e-/J	.	16g/	.	.	.	.	.
.	.	.	16a/JJ	.	.	.	.	.
4BB-/	4d/	.	4b-\	.	.	.	.	.
8r	8r	.	8r	.	.	.	.	.
==	==	==	==	==	==	==	==	==
*-	*-	*-	*-	*-	*-	*-	*-	*-
!!!system-decoration: [(g1)][(g2)]
!!!ENC: Berenika Jozajtis
!!!END: 2020-11-28
!!!ENC: Andrzej Kubiczek
!!!END: 2021-12-30
